!!!COM: Bach, Johann Sebastian
!!!OTL: 165. O Lamm Gottes, unschuldig
!!!ONM: No. 165
!!!OCL: Erk
!!!SCA: BWV 401
!!!YOE: Riemenschneider, Albert
!!!OPR: 371 Harmonized Chorales and 69 Chorale Melodies with Figured Bass
!!!OPT: Bach Chorale Harmonizations
**harm	**root	**kern	**kern	**kern	**kern
!	!	!bass	!tenor	!alto	!sprno
*Iorgan	*Iorgan	*Iorgan	*Iorgan	*Iorgan	*Iorgan
*>[A,A,B]	*>[A,A,B]	*>[A,A,B]	*>[A,A,B]	*>[A,A,B]	*>[A,A,B]
*>norep[A,B]	*>norep[A,B]	*>norep[A,B]	*>norep[A,B]	*>norep[A,B]	*>norep[A,B]
*>A	*>A	*>A	*>A	*>A	*>A
*k[f#c#g#d#]	*k[f#c#g#d#]	*k[f#c#g#d#]	*k[f#c#g#d#]	*k[f#c#g#d#]	*k[f#c#g#d#]
*E:	*E:	*E:	*E:	*E:	*E:
*met(c)	*met(c)	*met(c)	*met(c)	*met(c)	*met(c)
*M4/4	*M4/4	*M4/4	*M4/4	*M4/4	*M4/4
*MM60	*MM60	*MM60	*MM60	*MM60	*MM60
I	4FF	8EE	8G#	4B	4e
.	.	8FF#	8A	.	.
=1	=1	=1	=1	=1	=1
I7b	4FF	4GG#	[4B	16B	4e
.	.	.	.	16c#	.
.	.	.	.	8d	.
IV	4BB-	[4AA	8B]	8d	4e
.	.	.	16A	8c#	.
.	.	.	16G#	.	.
V7c	4CC	4AA]	4F#	8d#	4b
.	.	.	.	8B	.
Ib	4FF	8GG#	[4B	8e	4b
.	.	8FF#	.	8d#	.
=2	=2	=2	=2	=2	=2
vi7b	4DD	4EE	4B]	4g#	2cc#
V/V	4GG	4FF#	4A#	8f#	.
.	.	.	.	8e	.
V;	4CC;	4BB;	4F#;	4d#;	4b;
iii	4AA	4GG#	4G#	[4d#	4b
=3	=3	=3	=3	=3	=3
vi	4DD	4C#	4G#	8d#]	4e
.	.	.	.	[8c#	.
Vb	4CC	4D#	4F#	8c#]	4f#
.	.	.	.	8B	.
I	4FF	8E	4.E	8B	4g#
.	.	8D#	.	16c#	.
.	.	.	.	16d#	.
IVb	4BB-	8C#	.	[4e	4a
.	.	8AA	8c#	.	.
=4	=4	=4	=4	=4	=4
Ic	4FF	4BB	4B	8e]	4g#
.	.	.	.	16d#	.
.	.	.	.	16c#	.
V	4CC	4BBB	8.B	4d#	8f#
.	.	.	.	.	8e
.	.	.	16A	.	.
I;	4FF;	4EE;	4G#;	4B;	4e;
=:|!	=:|!	=:|!	=:|!	=:|!	=:|!
*>B	*>B	*>B	*>B	*>B	*>B
I	4FF	[4E	4B	4e	4g#
=5	=5	=5	=5	=5	=5
I	4FF	8E]	4B	4e	4g#
.	.	8D#	.	.	.
vi	4DD	8C#	4c#	4e	4g#
.	.	8BB	.	.	.
V7b/V	4GG	4AA#	4c#	4e	4f#
Vb/vi	4AA	4BB#	4G#	4d#	4g#
=6	=6	=6	=6	=6	=6
!!linebreak: 2
vi	8DD	8C#	8G#	8c#	8e
Vb	8CC	8D#	8F#	[8B	8d#
vi7b	8DD	8E	8G#	8B]	4c#
V/V	8GG	8F#	16F#	8A#	.
.	.	.	16E	.	.
V;	4CC;	4BB;	4D#;	4F#;	4B;
V7b/IV	4FF	4GG#	4E	4d	4b
=7	=7	=7	=7	=7	=7
IV	8BB-	4AA	8E	8c#	4cc#
(vii7c)	8EE	.	8F#	8d#	.
I	4FF	[4E	8G#	8e	4b
.	.	.	8A	16f#	.
.	.	.	.	16g#	.
Vb	4CC	8E]	[4B	4f#	4b
.	.	8D#	.	.	.
I	8FF	4E	8B]	4e	8g#
IVc	8BB-	.	8c#	.	8a
=8	=8	=8	=8	=8	=8
V7/IV	8FF	8E	4d	4.g#	4b
viioD7/ii	8FF#	8E#	.	.	.
v/VI	4AA	8F#	4c#	.	4a
.	.	8FF#	.	[8f#	.
VI;	4DD;	4C#;	4c#;	8f#]	4g#;
.	.	.	.	8e#;	.
iib	8GG	8AA	8c#	4f#	4cc#
V7b/V	8GG	8AA#	8e	.	.
=9	=9	=9	=9	=9	=9
V	4CC	4BB	[4d#	4f#	8b
.	.	.	.	.	8a
vi	4DD	4C#	8d#]	4e	4g#
.	.	.	[8c#	.	.
Vb	4CC	4D#	8c#]	[4f#	4f#
.	.	.	8B	.	.
I	4FF	4E	4B	8f#]	4g#
.	.	.	.	16e	.
.	.	.	.	16d#	.
=10	=10	=10	=10	=10	=10
Ib	4FF	8GG#	8B	4e	4b
.	.	16AA	8G#	.	.
.	.	16BB	.	.	.
vi	4DD	8C#	8E	[4e	4g#
.	.	8BB	8G#	.	.
ii7b	4GG	4AA	4c#	4e]	2f#
V	4CC	4BB	8B	4d#	.
.	.	.	8A	.	.
=11	=11	=11	=11	=11	=11
I;	2.FF;	2.EE;	2.G#;	2.B;	2.e;
==	==	==	==	==	==
*-	*-	*-	*-	*-	*-
!!!CDT: 1685/3//-1750/7/28
!!!OCY: Deutschland
!!!AGN: chorale
!!!AST: Baroque
!!!AIN: vox
!!!YOY: 1941
!!!PPP: New York; London
!!!PPR: G. Schirmer
!!!ENC: David Huron
!!!EED: David Huron
!!!YEN: United States of America
!!!YER: 1992
!!!YEC: Copyright 1992 David Huron
!!!YEM: Rights to all derivative electronic formats reserved.
!!!YER: March 20, 1996
!!!AMT: simple quadruple
!!!EEV: 1.1
!!chor2scor: -l 2 -s 0.6 -o %b.pmx
